packages/foundations/assets/icons/functional/images/food/cup_24.svg

<svg width="24" height="24" viewBox="0 0 24 24" fill="none" xmlns="http://www.w3.org/2000/svg">
<g clip-path="url(#clip0_185_1049)">
<path fill-rule="evenodd" clip-rule="evenodd" d="M18.0157 10.5086C19.6606 10.5086 21 11.8473 21 13.4913C21 15.1588 19.6606 16.4975 18.0157 16.4975H17.0052V17.4839C17.0052 19.6916 15.1958 21.5 12.9869 21.5H6.99478C4.7859 21.5 3 19.6916 3 17.4839V10.5086H18.0157ZM15.0078 12.5049H4.99739V17.4839C4.99739 18.5878 5.89034 19.4802 6.99478 19.4802H12.9869C14.0914 19.4802 15.0078 18.5878 15.0078 17.4839V12.5049ZM18.0157 12.5049H17.0052V14.5012H18.0157C18.5561 14.5012 19.0026 14.055 19.0026 13.4913C19.0026 12.9512 18.5561 12.5049 18.0157 12.5049ZM5.98433 7.47898C5.98433 8.04264 6.43081 8.48887 6.99478 8.48887C7.53525 8.48887 7.98172 8.04264 7.98172 7.47898V5.48269C7.98172 4.94252 7.53525 4.49629 6.99478 4.49629C6.43081 4.49629 5.98433 4.94252 5.98433 5.48269V7.47898ZM8.99217 7.47898C8.99217 8.04264 9.43864 8.48887 10.0026 8.48887C10.5431 8.48887 10.9896 8.04264 10.9896 7.47898V3.50989C10.9896 2.96972 10.5431 2.5 10.0026 2.5C9.43864 2.5 8.99217 2.96972 8.99217 3.50989V7.47898ZM12 7.47898C12 8.04264 12.4465 8.48887 12.9869 8.48887C13.5509 8.48887 13.9974 8.04264 13.9974 7.47898V5.50618C13.9974 4.94252 13.5509 4.49629 12.9869 4.49629C12.4465 4.49629 12 4.94252 12 5.50618V7.47898Z" fill="#1A1C1F"/>
</g>
<defs>
<clipPath id="clip0_185_1049">
<rect width="24" height="24" fill="white"/>
</clipPath>
</defs>
</svg>

<svg xmlns="http://www.w3.org/2000/svg" width="24" height="24" fill="none"><g clip-path="url(#a)"><path fill="#1A1C1F" fill-rule="evenodd" d="M18.016 10.509A2.99 2.99 0 0 1 21 13.49a2.993 2.993 0 0 1-2.984 3.006h-1.01v.987a4.03 4.03 0 0 1-4.02 4.016H6.996C4.785 21.5 3 19.692 3 17.484v-6.975zm-3.008 1.996H4.998v4.979c0 1.104.892 1.996 1.997 1.996h5.992c1.104 0 2.02-.892 2.02-1.996zm3.008 0h-1.01V14.5h1.01c.54 0 .987-.446.987-1.01a.993.993 0 0 0-.987-.986M5.984 7.479a.998.998 0 1 0 1.997 0V5.483a.993.993 0 0 0-.986-.987 1 1 0 0 0-1.01.987zm3.008 0a.998.998 0 1 0 1.997 0v-3.97c0-.54-.446-1.009-.986-1.009-.564 0-1.01.47-1.01 1.01zm3.008 0a.998.998 0 1 0 1.997 0V5.506a.998.998 0 1 0-1.997 0z" clip-rule="evenodd"/></g><defs><clipPath id="a"><path fill="#fff" d="M0 0h24v24H0z"/></clipPath></defs></svg>
